X:31
T:Wren's Polka, The
T:Cuil Aodha Polka, The
R:polka
Z:id:hn-polka-31
M:2/4
L:1/8
K:A
Ac EF|A>A Af|ec BA|e/f/e/c/ Bc/B/|Ac EF|A>A Af|ec BA/B/|1 cA AE:|2 cA AB||
|:ce ce|a2 af|ec BA|e/f/e/c/ BA|ce ce|a2 af|ec BA/B/|1 cA AB:|2 cA AE||
<end>
<start>
